icon-themes/sifr_svg/cmd/lc_testmode.svg

<svg viewBox="0 0 24 24" xmlns="http://www.w3.org/2000/svg"><path d="m5 2v12c-2.209139 0-4 1.790861-4 4s1.790861 4 4 4h5.7c-.637283-.576411-1.1775391-1.251731-1.6-2h-2.1-2c-1.1045695 0-2-.895431-2-2s.8954305-2 2-2h2v-12h10 2c1.104569 0 2 .8954305 2 2s-.895431 2-2 2h-2v.1c1.362483.1687712 2.658607.6853373 3.763672 1.5 1.372136-.6740527 2.240075-2.0712458 2.236328-3.6 0-2.209139-1.790861-4-4-4zm11 7c-3.865993 0-7 3.134007-7 7s3.134007 7 7 7 7-3.134007 7-7-3.134007-7-7-7zm0 2c2.761424 0 5 2.238576 5 5s-2.238576 5-5 5-5-2.238576-5-5 2.238576-5 5-5zm-3 3 3 5 3-5z" fill="#555753"/></svg>

<svg xmlns="http://www.w3.org/2000/svg" viewBox="0 0 24 24">
  <path
     style="fill:#555753"
     d="m 5,2 v 12 c -2.209139,0 -4,1.790861 -4,4 0,2.209139 1.790861,4 4,4 h 5.7 C 10.062717,21.423589 9.5224609,20.748269 9.1,20 H 7 5 C 3.8954305,20 3,19.104569 3,18 3,16.895431 3.8954305,16 5,16 H 7 V 4 h 10 2 c 1.104569,0 2,0.8954305 2,2 0,1.1045695 -0.895431,2 -2,2 h -2 v 0.1 c 1.362483,0.1687712 2.658607,0.6853373 3.763672,1.5 C 22.135808,8.9259473 23.003747,7.5287542 23,6 23,3.790861 21.209139,2 19,2 Z m 11,7 c -3.865993,0 -7,3.134007 -7,7 0,3.865993 3.134007,7 7,7 3.865993,0 7,-3.134007 7,-7 0,-3.865993 -3.134007,-7 -7,-7 z m 0,2 c 2.761424,0 5,2.238576 5,5 0,2.761424 -2.238576,5 -5,5 -2.761424,0 -5,-2.238576 -5,-5 0,-2.761424 2.238576,-5 5,-5 z m -3,3 3,5 3,-5 z"
     />
</svg>
